contributed-vectors/baikoh.svg

<?xml version="1.0" encoding="UTF-8" standalone="no"?>
<svg
   xmlns:dc="http://purl.org/dc/elements/1.1/"
   xmlns:cc="http://creativecommons.org/ns#"
   xmlns:rdf="http://www.w3.org/1999/02/22-rdf-syntax-ns#"
   xmlns:svg="http://www.w3.org/2000/svg"
   xmlns="http://www.w3.org/2000/svg"
   xmlns:sodipodi="http://sodipodi.sourceforge.net/DTD/sodipodi-0.dtd"
   xmlns:inkscape="http://www.inkscape.org/namespaces/inkscape"
   width="192"
   height="192"
   version="1.1"
   viewBox="0 0 192 192"
   id="svg14"
   sodipodi:docname="baikoh.svg"
   inkscape:version="1.0.1 (3bc2e813f5, 2020-09-07)"
   inkscape:export-xdpi="96"
   inkscape:export-ydpi="96"
   inkscape:export-filename="/home/jphilippe/github/delta/android/contributed-vectors/baikoh.png">
  <metadata
     id="metadata20">
    <rdf:RDF>
      <cc:Work
         rdf:about="">
        <dc:format>image/svg+xml</dc:format>
        <dc:type
           rdf:resource="http://purl.org/dc/dcmitype/StillImage" />
        <dc:title />
      </cc:Work>
    </rdf:RDF>
  </metadata>
  <defs
     id="defs18" />
  <sodipodi:namedview
     pagecolor="#ffffff"
     bordercolor="#666666"
     borderopacity="1"
     objecttolerance="10"
     gridtolerance="10"
     guidetolerance="10"
     inkscape:pageopacity="0"
     inkscape:pageshadow="2"
     inkscape:window-width="1718"
     inkscape:window-height="1050"
     id="namedview16"
     showgrid="false"
     inkscape:zoom="3.3697918"
     inkscape:cx="54.939249"
     inkscape:cy="108.73446"
     inkscape:window-x="36"
     inkscape:window-y="0"
     inkscape:window-maximized="0"
     inkscape:current-layer="svg14"
     inkscape:document-rotation="0"
     inkscape:pagecheckerboard="0" />
  <path
     style="fill:#ffffff;fill-opacity:1;stroke:none;stroke-width:0.999999"
     d="M 40.739329,146.7823 C 24.924812,140.81736 18.63264,123.56437 27.039831,109.21858 c 10.272383,-17.528492 36.570478,-15.70813 44.893547,3.10754 2.485963,5.61995 2.628904,14.22877 0.327851,19.74529 -4.97319,11.92269 -20.143638,19.00255 -31.5219,14.71089 z"
     id="path1320" />
  <path
     style="fill:#ffffff;fill-opacity:1;stroke:none;stroke-width:0.999999"
     d="m 135.33417,145.9269 c -8.37802,-3.22088 -13.93,-9.49861 -16.13102,-18.23963 -4.38117,-17.39923 13.25167,-33.870404 30.95346,-28.914209 5.71762,1.600839 12.84147,7.755639 15.61993,13.495159 5.45904,11.27688 0.15357,26.3476 -11.33947,32.21091 -5.19953,2.6526 -14.19552,3.3344 -19.1029,1.44777 z"
     id="path1359" />
  <path
     id="circle4"
     style="fill:#56595b;stroke:none;stroke-width:1;stroke-miterlimit:4;stroke-dasharray:none;fill-opacity:1"
     d="M 96 8 A 88 88 0 0 0 8 96 A 88 88 0 0 0 26.373047 149.21289 A 12.463678 12.463678 0 0 1 29.972656 148.67383 A 12.463678 12.463678 0 0 1 42.435547 161.13672 A 12.463678 12.463678 0 0 1 41.798828 165.00391 A 88 88 0 0 0 51.638672 171.77344 A 12.463678 12.463678 0 0 1 62.021484 166.18164 A 12.463678 12.463678 0 0 1 74.484375 178.64648 A 12.463678 12.463678 0 0 1 74.214844 181.08008 A 88 88 0 0 0 83.722656 183.12109 A 12.463678 12.463678 0 0 1 96 172.69727 A 12.463678 12.463678 0 0 1 108.29102 183.11914 A 88 88 0 0 0 117.5332 181.13281 A 12.5 12.5 0 0 1 117.29297 178.83789 A 12.5 12.5 0 0 1 129.79297 166.33789 A 12.5 12.5 0 0 1 140.17383 171.875 A 88 88 0 0 0 149.9668 165.16992 A 12.5 12.500001 0 0 1 149.3418 161.32812 A 12.5 12.500001 0 0 1 161.8418 148.82812 A 12.5 12.500001 0 0 1 165.49219 149.375 A 88 88 0 0 0 184 96 A 88 88 0 0 0 96 8 z M 48.660156 101.48047 A 21.017887 21.017887 0 0 1 69.679688 122.49805 A 21.017887 21.017887 0 0 1 48.660156 143.51562 A 21.017887 21.017887 0 0 1 27.642578 122.49805 A 21.017887 21.017887 0 0 1 48.660156 101.48047 z M 143.32812 101.48047 A 21.017887 21.017887 0 0 1 164.3457 122.49805 A 21.017887 21.017887 0 0 1 143.32812 143.51562 A 21.017887 21.017887 0 0 1 122.31055 122.49805 A 21.017887 21.017887 0 0 1 143.32812 101.48047 z " />
  <path
     sodipodi:type="star"
     style="opacity:1;fill:#ffffff;fill-opacity:1;fill-rule:evenodd;stroke-width:0.920225"
     id="path1890"
     inkscape:flatsided="true"
     sodipodi:sides="3"
     sodipodi:cx="95.475807"
     sodipodi:cy="147.62029"
     sodipodi:r1="9.6821051"
     sodipodi:r2="4.8410525"
     sodipodi:arg1="-0.52183428"
     sodipodi:arg2="0.52536327"
     inkscape:rounded="1"
     inkscape:randomized="0"
     d="m 103.86929,142.79404 c 8.3593,14.53793 8.3593,14.53793 -8.410567,14.50834 -16.769872,-0.0296 -16.769872,-0.0296 -8.35931,-14.53794 8.410562,-14.50833 8.410562,-14.50833 16.769877,0.0296 z"
     inkscape:transform-center-x="-0.10047645"
     inkscape:transform-center-y="-3.2582835"
     transform="rotate(-1,-625.44603,110.87178)" />
</svg>

<svg xmlns="http://www.w3.org/2000/svg" width="192" height="192"><path d="M40.74 146.782c-15.815-5.965-22.107-23.218-13.7-37.563 10.272-17.529 36.57-15.709 44.893 3.107 2.486 5.62 2.63 14.229.328 19.745-4.973 11.923-20.143 19.003-31.522 14.711zM135.334 145.927c-8.378-3.221-13.93-9.499-16.13-18.24-4.382-17.399 13.25-33.87 30.953-28.914 5.717 1.6 12.841 7.756 15.62 13.495 5.459 11.277.153 26.348-11.34 32.211-5.2 2.653-14.195 3.335-19.103 1.448z" style="fill:#fff;fill-opacity:1;stroke:none;stroke-width:.999999"/><path d="M96 8A88 88 0 0 0 8 96a88 88 0 0 0 18.373 53.213 12.464 12.464 0 0 1 3.6-.54 12.464 12.464 0 0 1 12.463 12.464 12.464 12.464 0 0 1-.637 3.867 88 88 0 0 0 9.84 6.77 12.464 12.464 0 0 1 10.382-5.592 12.464 12.464 0 0 1 12.463 12.464 12.464 12.464 0 0 1-.27 2.434 88 88 0 0 0 9.509 2.041A12.464 12.464 0 0 1 96 172.697a12.464 12.464 0 0 1 12.291 10.422 88 88 0 0 0 9.242-1.986 12.5 12.5 0 0 1-.24-2.295 12.5 12.5 0 0 1 12.5-12.5 12.5 12.5 0 0 1 10.38 5.537 88 88 0 0 0 9.794-6.705 12.5 12.5 0 0 1-.625-3.842 12.5 12.5 0 0 1 12.5-12.5 12.5 12.5 0 0 1 3.65.547A88 88 0 0 0 184 96 88 88 0 0 0 96 8zm-47.34 93.48a21.018 21.018 0 0 1 21.02 21.018 21.018 21.018 0 0 1-21.02 21.018 21.018 21.018 0 0 1-21.017-21.018A21.018 21.018 0 0 1 48.66 101.48zm94.668 0a21.018 21.018 0 0 1 21.018 21.018 21.018 21.018 0 0 1-21.018 21.018 21.018 21.018 0 0 1-21.017-21.018 21.018 21.018 0 0 1 21.017-21.018z" style="fill:#56595b;stroke:none;stroke-width:1;stroke-miterlimit:4;stroke-dasharray:none;fill-opacity:1"/><path d="M103.87 142.794c8.359 14.538 8.359 14.538-8.411 14.508-16.77-.03-16.77-.03-8.36-14.538 8.411-14.508 8.411-14.508 16.77.03z" style="opacity:1;fill:#fff;fill-opacity:1;fill-rule:evenodd;stroke-width:.920225" transform="rotate(-1 -625.446 110.872)"/></svg>
